X:1
%
T:Sal Went Down to the Cider Mill
L:1/8
M:2/4
B:Kuntz – Ragged but Right
K:D
{c}dd/B/ d>d|e/d/c/B/ A>A|B/A/B/c/ d/B/A/G/|F/D/E D2:|
|:de/c/ de/c/|de/c/ de/c/|d/e/f/d/ B/A/B/c/|d/B/A/F/ [D2D2]:|

